X:168
%%pagewidth 9in
%%vocalfont Baskerville10Pro 14
T:The new Royal Exchange
M:C
L:1/8
K:Bb
%%score 1 2
V:1 clef-treble
V:2 clef-bass octave=-1
V:1
[DB(d]c)BA B2F2|(GA)(Bc) A2(dc)&E4 C2D2|(BA)G2 G3^F & D4 D4|
w:I'll* go no more to~the New* Ex-*change, There* is* no room at
V:2
G,6D2|E4 F2^F2|G4 [DA]4|
V:1
G6D2 & D6x2|G2A2 B3B & D4 D4|c2d2 e3e &G4 G4|(dc)B2 A3G & G4^F4|G8||
w:all, It is so throng'd and crowded* by the gal-*lants of White-hall.
V:2
[GB]6z2|B4 G4|E4 C4|[DB]4[Dc]4|[GB]8||
V:1
F2(GA) B3D & D4x4|(EF)G2 F3F|(GA)B2 A3B & E4 =E4|c6d2 & F6F2|
w:But I'll* go to~the Old* Ex-change, Where old* things are in fashion; For
V:2
B8|[EGB]4 [DB]4|[EB]4 G4|[FA]6[B,B]2|
V:1
e2d2 c3B & G4 G4|A3G F2F2 & C4 x4|(GA)B2 A3B & E4 E4|[DB]8||
w:now the Kew's be-come the shop Of this bless-ed Re-for-mation.
V:2
[EB]4 [EG]4|F8 & E4 [DB]4|[EB]4F4|[B,F]8||
V:1
(dc)BA B2F2 &[DB]2x6|(GA)(Bc) A2(dc) &E4 C2D2|(BA)G2 G3^F &D4 D4|G6D2 &D6x2|
w:Come,* my new Court-iers, what* d'ye* lack? Good* con-*scien-ces? if you~do, Here's
V:2
G,6D2|E4 F2^F2|G4[DA]4|[GB]6z2|
V:1
G2A2 B3B & D4 D4|c2d2 e3e & G4 G4|(dc)B2 A3G & G4 ^F4|G8||
w:long and wide, the on-ly wear, The straight* will trou-ble you.
V:2
B4 G4|E4 [Cc]4|[DB]4[Dc]4|[GB]8||

